src/images/npm-logo_white.svg

<svg xmlns="http://www.w3.org/2000/svg" viewBox="0 0 18 7"><path d="M0 0v180h150v30h120v-30h270V0H0zm30 30h120v120h-30V60H90v90H30V30zm150 0h120v120h-60v30h-60V30zm150 0h180v120h-30V60h-30v90h-30V60h-30v90h-60V30zm-90 30v60h30V60h-30z" style="stroke-width:30;fill:#fff" transform="scale(.03333)"/></svg>

<?xml version="1.0" encoding="UTF-8" standalone="no"?>
<svg
   version="1.1"
   x="0px"
   y="0px"
   width="540px"
   height="210px"
   viewBox="0 0 18 7"
   id="svg401"
   sodipodi:docname="npm-logo_white.svg"
   inkscape:version="1.1.2 (b8e25be833, 2022-02-05)"
   xmlns:inkscape="http://www.inkscape.org/namespaces/inkscape"
   xmlns:sodipodi="http://sodipodi.sourceforge.net/DTD/sodipodi-0.dtd"
   xmlns="http://www.w3.org/2000/svg"
   xmlns:svg="http://www.w3.org/2000/svg">
  <defs
     id="defs405" />
  <sodipodi:namedview
     id="namedview403"
     pagecolor="#505050"
     bordercolor="#eeeeee"
     borderopacity="1"
     inkscape:pageshadow="0"
     inkscape:pageopacity="0"
     inkscape:pagecheckerboard="0"
     showgrid="false"
     inkscape:zoom="1.7586008"
     inkscape:cx="155.80569"
     inkscape:cy="112.87383"
     inkscape:window-width="1920"
     inkscape:window-height="970"
     inkscape:window-x="0"
     inkscape:window-y="27"
     inkscape:window-maximized="1"
     inkscape:current-layer="svg401" />
  <path
     id="path393"
     style="stroke-width:30;fill:#ffffff"
     d="M 0 0 L 0 180 L 150 180 L 150 210 L 270 210 L 270 180 L 540 180 L 540 0 L 0 0 z M 30 30 L 150 30 L 150 150 L 120 150 L 120 60 L 90 60 L 90 150 L 30 150 L 30 30 z M 180 30 L 300 30 L 300 150 L 240 150 L 240 180 L 180 180 L 180 30 z M 330 30 L 510 30 L 510 150 L 480 150 L 480 60 L 450 60 L 450 150 L 420 150 L 420 60 L 390 60 L 390 150 L 330 150 L 330 30 z M 240 60 L 240 120 L 270 120 L 270 60 L 240 60 z "
     transform="scale(0.03333333)" />
</svg>
